X:468460
T: Dancing Eyes
R: jig
M: 6/8
L: 1/8
K: Gmaj
|: D | G,B,D GBd | cAA BAG | ADD fed | cAG FDC |
|B,DD GBd | cAG FGA | d^cd fed | cAF G2 :|
|: D | GBd gba | fag fdc | B2 d cAA | BAG AFD |
GB/c/d gba | fag fdc | B2 d cAF | AGF G2 :|

